src/assets/images/realtime/realtimekit/web/components-gallery/rtk-audio-visualizer.svg

<svg xmlns="http://www.w3.org/2000/svg" xmlns:xlink="http://www.w3.org/1999/xlink" width="400" height="300" fill="none" viewBox="0 0 400 300"><g clip-path="url(#clip0_9781_42557)"><path fill="#fff" d="M0 0h400v300H0z"/><path fill="url(#pattern0_9781_42557)" d="M0 4.21A4.21 4.21 0 0 1 4.21 0h391.58A4.21 4.21 0 0 1 400 4.21v291.58a4.21 4.21 0 0 1-4.211 4.211H4.211A4.21 4.21 0 0 1 0 295.789z" style="mix-blend-mode:darken"/><g fill="#1a8cfe" clip-path="url(#clip1_9781_42557)"><rect width="12" height="24" x="80" y="138" rx="6"/><rect width="12" height="48" x="98" y="126" rx="6"/><rect width="12" height="24" x="116" y="138" rx="6"/></g><rect width="12" height="12" x="176" y="144" fill="#1a8cfe" rx="6"/><rect width="12" height="12" x="194" y="144" fill="#1a8cfe" rx="6"/><rect width="12" height="12" x="212" y="144" fill="#1a8cfe" rx="6"/><g clip-path="url(#clip2_9781_42557)"><path fill="#ff414d" d="M280.305 132.395a1.351 1.351 0 0 0-1.91 1.91l10.405 10.404V150a7.2 7.2 0 0 0 11.247 5.956l2.062 2.063a9.4 9.4 0 0 1-5.659 1.881h-.9l-.389-.008c-5.039-.204-9.061-4.354-9.061-9.442v-.9l-.012-.183a1.35 1.35 0 0 0-2.688.183v.9l.007.425c.214 6.213 5.093 11.242 11.243 11.692v4.083l.013.183a1.35 1.35 0 0 0 2.687-.183l.002-4.083a12.1 12.1 0 0 0 6.682-2.624l7.661 7.662a1.351 1.351 0 0 0 1.91-1.91zm17.776 21.596A4.5 4.5 0 0 1 291.5 150v-2.591zM300.5 139.2v9.573l2.574 2.574q.125-.656.126-1.347v-10.8a7.2 7.2 0 0 0-14.152-1.88l2.452 2.453v-.573a4.5 4.5 0 0 1 9 0m4.853 14.426 2.063 2.062a12.1 12.1 0 0 0 1.184-5.238v-.9l-.012-.183a1.35 1.35 0 0 0-2.688.183v.9l-.008.389a9.4 9.4 0 0 1-.539 2.787"/></g></g><defs><clipPath id="clip0_9781_42557"><path fill="#fff" d="M0 0h400v300H0z"/></clipPath><clipPath id="clip1_9781_42557"><rect width="48" height="48" x="80" y="126" fill="#fff" rx="4"/></clipPath><clipPath id="clip2_9781_42557"><path fill="#fff" d="M278 132h36v36h-36z"/></clipPath><pattern id="pattern0_9781_42557" width=".037" height=".049" patternContentUnits="objectBoundingBox"><use xlink:href="#image0_9781_42557" transform="scale(.00066 .00088)"/></pattern><image xlink:href="data:image/png;base64,iVBORw0KGgoAAAANSUhEUgAAADgAAAA4CAYAAACohjseAAAACXBIWXMAACxLAAAsSwGlPZapAAAAAXNSR0IArs4c6QAAAARnQU1BAACxjwv8YQUAAADdSURBVHgB7dmxDoMgFIXhCzEmbsbF9388F8PGAKHt6dSksvXaHHK+EQbzB0Sj4fFiA4s2OAWyUyA7BbJTIDsFslMgOwWyUyA7BbJTIDsFspvsBrVWO8/TSinWWrNlWWxdV5sm/8sH7w+/iDuO4x32KcZo+767R7pv0ZTSVxxgDKvqzT0w59ydw5b15h4YQujOXa3sr7kHzvPcncNh4809cNu2y1XEGE5Sb+GO32c4SXHY4H5EGFYV4UM8Jv5Nr2rsFMhOgewUyE6B7BTIToHsFMhOgewUyE6B7IYPfALcB0NZ5j6jXgAAAABJRU5ErkJggg==" id="image0_9781_42557" width="56" height="56" preserveAspectRatio="none"/></defs></svg>

<svg width="400" height="300" viewBox="0 0 400 300" fill="none" xmlns="http://www.w3.org/2000/svg" xmlns:xlink="http://www.w3.org/1999/xlink">
<g clip-path="url(#clip0_9781_42557)">
<rect width="400" height="300" fill="white"/>
<g style="mix-blend-mode:darken">
<path d="M0 4.21053C0 1.88512 1.88512 0 4.21053 0H395.789C398.115 0 400 1.88512 400 4.21053V295.789C400 298.115 398.115 300 395.789 300H4.21054C1.88513 300 0 298.115 0 295.789V4.21053Z" fill="url(#pattern0_9781_42557)"/>
</g>
<g clip-path="url(#clip1_9781_42557)">
<rect x="80" y="138" width="12" height="24" rx="6" fill="#1A8CFE"/>
<rect x="98" y="126" width="12" height="48" rx="6" fill="#1A8CFE"/>
<rect x="116" y="138" width="12" height="24" rx="6" fill="#1A8CFE"/>
</g>
<rect x="176" y="144" width="12" height="12" rx="6" fill="#1A8CFE"/>
<rect x="194" y="144" width="12" height="12" rx="6" fill="#1A8CFE"/>
<rect x="212" y="144" width="12" height="12" rx="6" fill="#1A8CFE"/>
<g clip-path="url(#clip2_9781_42557)">
<path d="M280.305 132.395C279.777 131.868 278.923 131.868 278.395 132.395C277.868 132.923 277.868 133.777 278.395 134.305L288.8 144.709V150C288.8 153.976 292.024 157.2 296 157.2C297.5 157.2 298.894 156.741 300.047 155.956L302.109 158.019C300.532 159.2 298.573 159.9 296.45 159.9H295.55L295.161 159.892C290.122 159.688 286.1 155.538 286.1 150.45V149.55L286.088 149.367C285.998 148.708 285.434 148.2 284.75 148.2C284.004 148.2 283.4 148.804 283.4 149.55V150.45L283.407 150.875C283.621 157.088 288.5 162.117 294.65 162.567L294.65 166.65L294.663 166.833C294.752 167.492 295.317 168 296 168C296.746 168 297.35 167.395 297.35 166.65L297.352 162.567C299.87 162.382 302.175 161.43 304.034 159.943L311.695 167.605C312.223 168.132 313.077 168.132 313.605 167.605C314.132 167.077 314.132 166.223 313.605 165.695L280.305 132.395ZM298.081 153.991C297.459 154.316 296.751 154.5 296 154.5C293.515 154.5 291.5 152.485 291.5 150V147.409L298.081 153.991ZM300.5 139.2V148.773L303.074 151.347C303.157 150.911 303.2 150.46 303.2 150V139.2C303.2 135.224 299.977 132 296 132C292.674 132 289.875 134.255 289.048 137.32L291.5 139.773V139.2C291.5 136.715 293.515 134.7 296 134.7C298.486 134.7 300.5 136.715 300.5 139.2ZM305.353 153.626L307.416 155.688C308.175 154.102 308.6 152.326 308.6 150.45V149.55L308.588 149.367C308.499 148.708 307.934 148.2 307.25 148.2C306.505 148.2 305.9 148.804 305.9 149.55V150.45L305.892 150.839C305.853 151.813 305.666 152.749 305.353 153.626Z" fill="#FF414D"/>
</g>
</g>
<defs>
<pattern id="pattern0_9781_42557" patternContentUnits="objectBoundingBox" width="0.0368421" height="0.0491228">
<use xlink:href="#image0_9781_42557" transform="scale(0.000657895 0.000877193)"/>
</pattern>
<clipPath id="clip0_9781_42557">
<rect width="400" height="300" fill="white"/>
</clipPath>
<clipPath id="clip1_9781_42557">
<rect x="80" y="126" width="48" height="48" rx="4" fill="white"/>
</clipPath>
<clipPath id="clip2_9781_42557">
<rect width="36" height="36" fill="white" transform="translate(278 132)"/>
</clipPath>
<image id="image0_9781_42557" width="56" height="56" preserveAspectRatio="none" xlink:href="data:image/png;base64,iVBORw0KGgoAAAANSUhEUgAAADgAAAA4CAYAAACohjseAAAACXBIWXMAACxLAAAsSwGlPZapAAAAAXNSR0IArs4c6QAAAARnQU1BAACxjwv8YQUAAADdSURBVHgB7dmxDoMgFIXhCzEmbsbF9388F8PGAKHt6dSksvXaHHK+EQbzB0Sj4fFiA4s2OAWyUyA7BbJTIDsFslMgOwWyUyA7BbJTIDsFspvsBrVWO8/TSinWWrNlWWxdV5sm/8sH7w+/iDuO4x32KcZo+767R7pv0ZTSVxxgDKvqzT0w59ydw5b15h4YQujOXa3sr7kHzvPcncNh4809cNu2y1XEGE5Sb+GO32c4SXHY4H5EGFYV4UM8Jv5Nr2rsFMhOgewUyE6B7BTIToHsFMhOgewUyE6B7IYPfALcB0NZ5j6jXgAAAABJRU5ErkJggg=="/>
</defs>
</svg>
